X:5097
T:A Jig For Tommy Gunn
M:6/8
R:Jig
L:1/8
Q:150
N:Tommy Gunn, a founder member of The Boys Of The Lough,
N:died in October 2001.
C:Aidan Crossey
K:G
|:ba|gdd Bdd|Add Bdd|egg fga|bgb afd|
gdd Bdd|Add Bdd|egg agf|g3 z:||
|:dc|Bdd gdd|efe dBG|def gfg|eag fga|
gdd Bdd|Add Bdd|efe dBG|1 ABA G:||
2 ABA G3|
